icons/check.svg

<?xml version="1.0" standalone="no"?><!-- Generator: Gravit.io --><svg xmlns="http://www.w3.org/2000/svg" xmlns:xlink="http://www.w3.org/1999/xlink" width="96" height="96"><path d=" M 36.3 86.9 L 80.2 43 C 80.9 42.300000000000004 81.9 41.900000000000006 83 41.900000000000006 C 84.1 41.900000000000006 85.1 42.300000000000004 85.8 43 C 86.6 43.800000000000004 87 44.800000000000004 87 45.900000000000006 C 87 46.900000000000006 86.6 47.900000000000006 85.8 48.7 L 40 94.5 L 36.3 96 L 32.7 94.5 L 10.2 72 C 9.4 71.3 9 70.3 9 69.2 C 9 68.10000000000001 9.4 67.10000000000001 10.2 66.4 C 10.9 65.60000000000001 11.9 65.2 13 65.2 C 14.1 65.2 15.1 65.60000000000001 15.8 66.4 L 36.3 86.9 Z " fill="#454545" stroke="none"/><mask id="_mask_7YMhqaCCpornBkObqJbTzH4NsZiBjOV3"><path d=" M 36.3 86.9 L 80.2 43 C 80.9 42.300000000000004 81.9 41.900000000000006 83 41.900000000000006 C 84.1 41.900000000000006 85.1 42.300000000000004 85.8 43 C 86.6 43.800000000000004 87 44.800000000000004 87 45.900000000000006 C 87 46.900000000000006 86.6 47.900000000000006 85.8 48.7 L 40 94.5 L 36.3 96 L 32.7 94.5 L 10.2 72 C 9.4 71.3 9 70.3 9 69.2 C 9 68.10000000000001 9.4 67.10000000000001 10.2 66.4 C 10.9 65.60000000000001 11.9 65.2 13 65.2 C 14.1 65.2 15.1 65.60000000000001 15.8 66.4 L 36.3 86.9 Z " fill="white" stroke="none"/></mask><path d=" M 36.3 86.9 L 80.2 43 C 80.9 42.300000000000004 81.9 41.900000000000006 83 41.900000000000006 C 84.1 41.900000000000006 85.1 42.300000000000004 85.8 43 C 86.6 43.800000000000004 87 44.800000000000004 87 45.900000000000006 C 87 46.900000000000006 86.6 47.900000000000006 85.8 48.7 L 40 94.5 L 36.3 96 L 32.7 94.5 L 10.2 72 C 9.4 71.3 9 70.3 9 69.2 C 9 68.10000000000001 9.4 67.10000000000001 10.2 66.4 C 10.9 65.60000000000001 11.9 65.2 13 65.2 C 14.1 65.2 15.1 65.60000000000001 15.8 66.4 L 36.3 86.9 Z " fill="none" stroke="none" stroke-width="16" mask="url(#_mask_7YMhqaCCpornBkObqJbTzH4NsZiBjOV3)"/></svg>

<svg xmlns="http://www.w3.org/2000/svg" width="96" height="96"><path d="M36.3 86.9L80.2 43c.7-.7 1.7-1.1 2.8-1.1 1.1 0 2.1.4 2.8 1.1.8.8 1.2 1.8 1.2 2.9 0 1-.4 2-1.2 2.8L40 94.5 36.3 96l-3.6-1.5L10.2 72c-.8-.7-1.2-1.7-1.2-2.8 0-1.1.4-2.1 1.2-2.8.7-.8 1.7-1.2 2.8-1.2 1.1 0 2.1.4 2.8 1.2l20.5 20.5z" fill="#454545"/></svg>
